X: 41450
T: Two Mile Bridge
R: jig
M: 6/8
K: Eminor
G2E EFE|G2A BAG|F2D DED|FDF AGF|
G2E EFE|GFG Bef|gfe afd|efe e3:|
|:g2e efe|g2a bag|f2d ded|fdf agf|
gfg aga|bag faf|gfe def|efe e3:|
|:gfe fed|ed^c dAG|F2D DED|FDF AGF|
GFG AGA|BcB efa|gfe def|efe e3:|

